apps/scalable/workspace/workspace.svg

<svg xmlns="http://www.w3.org/2000/svg" style="isolation:isolate" width="256" height="256"><defs><filter id="a" width="270.648" height="254.338" x="-7.32" y="2.95" filterUnits="userSpaceOnUse"><feGaussianBlur xmlns="http://www.w3.org/2000/svg" in="SourceGraphic" stdDeviation="4.294"/><feOffset xmlns="http://www.w3.org/2000/svg" dy="4" result="pf_100_offsetBlur"/><feFlood xmlns="http://www.w3.org/2000/svg" flood-opacity=".4"/><feComposite xmlns="http://www.w3.org/2000/svg" in2="pf_100_offsetBlur" operator="in" result="pf_100_dropShadow"/><feBlend xmlns="http://www.w3.org/2000/svg" in="SourceGraphic" in2="pf_100_dropShadow"/></filter></defs><g filter="url(#a)"><linearGradient id="b" x1=".263" x2=".222" y1=".368" y2=".205" gradientTransform="matrix(244.648 0 0 228.338 5.676 11.947)" gradientUnits="userSpaceOnUse"><stop offset="0%" stop-color="#d3d3d3"/><stop offset="100%" stop-color="#bfbfbf"/></linearGradient><path fill="url(#b)" d="M165.685 11.947c74.055 0 84.639 10.557 84.639 84.544v59.251c0 73.986-10.584 84.543-84.639 84.543h-75.37c-74.055 0-84.639-10.557-84.639-84.543V96.491c0-73.987 10.584-84.544 84.639-84.544h75.37z"/></g><path fill="#747474" d="M97.193 34.667C36.653 34.667 28 43.296 28 103.78v21.606h99.5V34.667H97.193zm35.305 0v90.719H228V103.78c0-60.484-8.653-69.113-69.193-69.113h-26.309zM28 130.384v21.834c0 60.484 8.653 69.115 69.193 69.115H127.5v-90.949H28zm104.498 0v90.949h26.309c60.54 0 69.193-8.631 69.193-69.115v-21.834h-95.502z"/><defs><filter id="c" width="218.011" height="204.677" x="18.99" y="25.66" filterUnits="userSpaceOnUse"><feGaussianBlur xmlns="http://www.w3.org/2000/svg" stdDeviation="3.867"/></filter></defs><path fill="#040000" d="M97.193 34.667C36.653 34.667 28 43.296 28 103.78v21.606h99.5V34.667H97.193zm35.305 0v90.719H228V103.78c0-60.484-8.653-69.113-69.193-69.113h-26.309zM28 130.384v21.834c0 60.484 8.653 69.115 69.193 69.115H127.5v-90.949H28zm104.498 0v90.949h26.309c60.54 0 69.193-8.631 69.193-69.115v-21.834h-95.502z" opacity=".3" filter="url(#c)"/><g opacity=".4"><linearGradient id="d" x1=".517" x2=".517" y2="1"><stop offset="0%" stop-color="#fff"/><stop offset="12.5%" stop-opacity=".098" stop-color="#fff"/><stop offset="92.5%" stop-opacity=".098"/><stop offset="100%" stop-opacity=".498"/></linearGradient><path fill="none" stroke="url(#d)" stroke-linecap="round" stroke-linejoin="round" stroke-width="4.077" d="M165.685 11.947c74.055 0 84.639 10.557 84.639 84.544v59.251c0 73.986-10.584 84.543-84.639 84.543h-75.37c-74.055 0-84.639-10.557-84.639-84.543V96.491c0-73.987 10.584-84.544 84.639-84.544h75.37z" vector-effect="non-scaling-stroke"/></g></svg>

<svg xmlns="http://www.w3.org/2000/svg" style="isolation:isolate" width="256" height="256" viewBox="0 0 256 256">
 <defs>
  <filter id="rCxTIC7MB7hOOboXguplVV2wbs5x4cmn" width="270.648" height="254.338" x="-7.32" y="2.95" filterUnits="userSpaceOnUse">
   <feGaussianBlur xmlns="http://www.w3.org/2000/svg" in="SourceGraphic" stdDeviation="4.294"/>
   <feOffset xmlns="http://www.w3.org/2000/svg" dx="0" dy="4" result="pf_100_offsetBlur"/>
   <feFlood xmlns="http://www.w3.org/2000/svg" flood-opacity=".4"/>
   <feComposite xmlns="http://www.w3.org/2000/svg" in2="pf_100_offsetBlur" operator="in" result="pf_100_dropShadow"/>
   <feBlend xmlns="http://www.w3.org/2000/svg" in="SourceGraphic" in2="pf_100_dropShadow" mode="normal"/>
  </filter>
 </defs>
 <g filter="url(#rCxTIC7MB7hOOboXguplVV2wbs5x4cmn)">
  <linearGradient id="_lgradient_318" x1=".263" x2=".222" y1=".368" y2=".205" gradientTransform="matrix(244.648,0,0,228.338,5.676,11.947)" gradientUnits="userSpaceOnUse">
   <stop offset="0%" style="stop-color:rgb(211,211,211)"/>
   <stop offset="100%" style="stop-color:rgb(191,191,191)"/>
  </linearGradient>
  <path fill="url(#_lgradient_318)" d="M 165.685 11.947 C 239.74 11.947 250.324 22.504 250.324 96.491 L 250.324 155.742 C 250.324 229.728 239.74 240.285 165.685 240.285 L 90.315 240.285 C 16.26 240.285 5.676 229.728 5.676 155.742 L 5.676 96.491 C 5.676 22.504 16.26 11.947 90.315 11.947 L 165.685 11.947 Z"/>
 </g>
 <g>
  <path fill="#747474" d="M 97.193 34.667 C 36.653 34.667 28 43.296 28 103.78 L 28 125.386 L 127.5 125.386 L 127.5 34.667 L 97.193 34.667 Z M 132.498 34.667 L 132.498 125.386 L 228 125.386 L 228 103.78 C 228 43.296 219.347 34.667 158.807 34.667 L 132.498 34.667 Z M 28 130.384 L 28 152.218 C 28 212.702 36.653 221.333 97.193 221.333 L 127.5 221.333 L 127.5 130.384 L 28 130.384 Z M 132.498 130.384 L 132.498 221.333 L 158.807 221.333 C 219.347 221.333 228 212.702 228 152.218 L 228 130.384 L 132.498 130.384 Z"/>
  <defs>
   <filter id="j5GpEBDGJEuCJtb1wyKs1v04Q7KQSvzo" width="218.011" height="204.677" x="18.99" y="25.66" filterUnits="userSpaceOnUse">
    <feGaussianBlur xmlns="http://www.w3.org/2000/svg" stdDeviation="3.867"/>
   </filter>
  </defs>
  <g opacity=".3" filter="url(#j5GpEBDGJEuCJtb1wyKs1v04Q7KQSvzo)">
   <path fill="#040000" d="M 97.193 34.667 C 36.653 34.667 28 43.296 28 103.78 L 28 125.386 L 127.5 125.386 L 127.5 34.667 L 97.193 34.667 Z M 132.498 34.667 L 132.498 125.386 L 228 125.386 L 228 103.78 C 228 43.296 219.347 34.667 158.807 34.667 L 132.498 34.667 Z M 28 130.384 L 28 152.218 C 28 212.702 36.653 221.333 97.193 221.333 L 127.5 221.333 L 127.5 130.384 L 28 130.384 Z M 132.498 130.384 L 132.498 221.333 L 158.807 221.333 C 219.347 221.333 228 212.702 228 152.218 L 228 130.384 L 132.498 130.384 Z"/>
  </g>
 </g>
 <g opacity=".4">
  <linearGradient id="_lgradient_319" x1=".517" x2=".517" y1="0" y2="1">
   <stop offset="0%" style="stop-color:rgb(255,255,255)"/>
   <stop offset="12.5%" stop-opacity=".098" style="stop-color:rgb(255,255,255)"/>
   <stop offset="92.5%" stop-opacity=".098" style="stop-color:rgb(0,0,0)"/>
   <stop offset="100%" stop-opacity=".498" style="stop-color:rgb(0,0,0)"/>
  </linearGradient>
  <path fill="none" stroke="url(#_lgradient_319)" stroke-linecap="round" stroke-linejoin="round" stroke-width="4.077" d="M 165.685 11.947 C 239.74 11.947 250.324 22.504 250.324 96.491 L 250.324 155.742 C 250.324 229.728 239.74 240.285 165.685 240.285 L 90.315 240.285 C 16.26 240.285 5.676 229.728 5.676 155.742 L 5.676 96.491 C 5.676 22.504 16.26 11.947 90.315 11.947 L 165.685 11.947 Z" vector-effect="non-scaling-stroke"/>
 </g>
</svg>
